X:1
T:Title
%%score { ( 1 4 ) | ( 2 3 ) }
L:1/8
Q:1/4=224
M:2/2
K:F
V:1 treble nm="Grand Piano"
V:4 treble 
V:2 bass 
V:3 bass 
V:1
 A4 A4 | c4 B4 | F4 G4 | B4 A4 | G4 F4 | [CGB]4 [CFA]4 | [=B,FG]4 .[G,B,F]4 | [Ec]8 | A4 A4 | %9
w: G.~E.~Moser *|||||||||
 F4 G4 | A4 B4 | A4 G4 | [CGc]4 [CGB]4 | [CFA]4 [B,DB]4 | [B,CE]4 [B,EG]4 | F8 | [DFA]4 [DFA]4 | %17
w: ||||||||
 [DAd]4 [DFA]4 | [DF]4 [A,D]4 | [B,DE]4 .[A,^CE]4 | [DA]4 [CFA]4 | [G,CG]4 [G,C]4 | %22
w: |||||
 [A,CF]4 [G,=B,F]4 | [G,CE]8 | [CEG]4 [CGB]4 | [CFB]4 [CFA]4 | [DAd]4 [Af]4 | [Af]4 [Ae]4 | %28
w: ||||||
 [Af]4 [DA]4 | [DGd]4 .[B,DG]4 | [EB]4 E4 | F8 |] %32
w: ||||
V:2
 [F,CF]4 [F,CF]4 | [F,A,_E]4 [F,B,D]4 | [F,B,^C]4 [F,B,C]4 | [F,C]4 [F,C]4 | [B,D]4 [A,C]4 | %5
 E,4 F,4 | D,4 z2 D2 | [C,G,]8 | [F,F]4 [F,CF]4 | [F,A,C]4 [F,B,E]4 | [F,CF]4 [F,B,D]4 | %11
 [F,=B,D]4 [F,B,D]4 | E,4 E,4 | F,4 B,,4 | C,4 C,4 | z4 A,4 | D,4 A,4 | F,4 D,4 | A,,4 F,,4 | %19
 G,,4 z2 G,2 | F,4 F,4 | E,4 E,4 | D,4 G,,4 | C,8 | C,4 E,4 | F,4 F,4 | F,4 [D,D]4 | %27
 [A,^C]4 [G,C]4 | [F,D]4 F,4 | B,4 z2 F2 | [C,G,]4 [C,B,C]4 | [F,A,C]8 |] %32
V:3
 x8 | x8 | x8 | x8 | x8 | x8 | z4 D,4 | x8 | x8 | x8 | x8 | x8 | x8 | x8 | x8 | F,8 | x8 | x8 | %18
 x8 | z4 A,,4 | x8 | x8 | x8 | x8 | x8 | x8 | x8 | x8 | x8 | z4 B,,4 | x8 | x8 |] %32
V:4
 x8 | x8 | x8 | x8 | x8 | x8 | x8 | x8 | x8 | x8 | x8 | x8 | x8 | x8 | x8 | B,4 z4 | x8 | x8 | x8 | %19
 x8 | x8 | x8 | x8 | x8 | x8 | x8 | x8 | x8 | x8 | x8 | x8 | x8 |] %32

